X: 8
T:Castles in the Air
K:
% Nottingham Music Database
S:Kevin Briggs
M:4/4
L:1/8
R:Hornpipe
K:G
P:A
(3DEF|"G"G2GB "D7"D2(3DEF|"G"GFGA "G7"B4|"C"cBce "G"dBG2|"A7"GFGB "D7"AFD2|
"G"G2GB "D7"D2(3DEF|"G"GFGA "G7"B4|"C"cBce "G"dBGA|"D7"BcBA "G"G4:|
P:B
d2|"C"e2eg "G"d4|"D7"cBcd "G"B4|"C"cBce "G"dBG2|GFGB AFD2|
d2d2 "D7"e4|"G"GFGA "G7"B4|"C"cBce "G"dBGA|"D7"BcBA "G"G2:|

